packages/dnb-eufemia/assets/icons/linkedin_medium.svg

<svg width="24" height="24" viewBox="0 0 24 24" fill="none" xmlns="http://www.w3.org/2000/svg">
<path d="M5.61866 22.75V23.5C6.03287 23.5 6.36866 23.1642 6.36866 22.75H5.61866ZM0.75 22.75H0C0 23.1642 0.335786 23.5 0.75 23.5L0.75 22.75ZM0.75 8.76004V8.01004C0.335786 8.01004 0 8.34583 0 8.76004H0.75ZM5.61866 8.76004H6.36866C6.36866 8.34583 6.03287 8.01004 5.61866 8.01004V8.76004ZM13.5828 22.75V23.5C13.997 23.5 14.3328 23.1642 14.3328 22.75H13.5828ZM8.46371 22.75H7.71371C7.71371 23.1642 8.0495 23.5 8.46371 23.5V22.75ZM8.46371 8.76004V8.01004C8.0495 8.01004 7.71371 8.34583 7.71371 8.76004H8.46371ZM13.5828 8.76004H14.3328C14.3328 8.34583 13.997 8.01004 13.5828 8.01004V8.76004ZM13.5828 10.3569H12.8328C12.8328 10.6491 13.0026 10.9147 13.2678 11.0375C13.533 11.1603 13.8453 11.1178 14.0681 10.9287L13.5828 10.3569ZM17.8704 8.75V7.99994L17.8607 8.00006L17.8704 8.75ZM23.25 22.75V23.5C23.6642 23.5 24 23.1642 24 22.75H23.25ZM17.8704 22.75H17.1204C17.1204 23.1642 17.4562 23.5 17.8704 23.5V22.75ZM17.8704 15.4688L17.1204 15.4653V15.4688H17.8704ZM15.7266 13.3095V14.0595H15.7266L15.7266 13.3095ZM5.61866 22H0.75V23.5H5.61866V22ZM1.5 22.75V8.76004H0V22.75H1.5ZM0.75 9.51004H5.61866V8.01004H0.75V9.51004ZM4.86866 8.76004V22.75H6.36866V8.76004H4.86866ZM12.8328 15.4688V22.75H14.3328V15.4688H12.8328ZM13.5828 22H8.46371V23.5H13.5828V22ZM9.21371 22.75V8.76004H7.71371V22.75H9.21371ZM8.46371 9.51004H13.5828V8.01004H8.46371V9.51004ZM12.8328 8.76004V10.3569H14.3328V8.76004H12.8328ZM14.0681 10.9287C15.1351 10.0231 16.4829 9.51814 17.8802 9.49994L17.8607 8.00006C16.1141 8.02281 14.4302 8.65403 13.0975 9.78507L14.0681 10.9287ZM17.8704 9.5C19.2583 9.5 20.3815 10.0077 21.1724 10.967C21.9768 11.9429 22.5 13.4642 22.5 15.5893H24C24 13.2352 23.4212 11.3369 22.3298 10.0129C21.2248 8.6724 19.6582 8 17.8704 8V9.5ZM22.5 15.5893V22.75H24V15.5893H22.5ZM23.25 22H17.8704V23.5H23.25V22ZM18.6204 22.75V15.4688H17.1204V22.75H18.6204ZM15.7266 12.5595C14.1358 12.5595 12.8328 13.9071 12.8328 15.4688H14.3328C14.3328 14.7168 14.9828 14.0595 15.7266 14.0595V12.5595ZM18.6204 15.4723C18.6277 13.9033 17.3195 12.5595 15.7266 12.5595L15.7266 14.0595C16.4776 14.0595 17.1239 14.7166 17.1204 15.4653L18.6204 15.4723ZM4.75 3.625C4.75 4.52246 4.02246 5.25 3.125 5.25V6.75C4.85089 6.75 6.25 5.35089 6.25 3.625H4.75ZM3.125 5.25C2.22754 5.25 1.5 4.52246 1.5 3.625H0C0 5.35089 1.39911 6.75 3.125 6.75V5.25ZM1.5 3.625C1.5 2.72754 2.22754 2 3.125 2V0.5C1.39911 0.5 0 1.89911 0 3.625H1.5ZM3.125 2C4.02246 2 4.75 2.72754 4.75 3.625H6.25C6.25 1.89911 4.85089 0.5 3.125 0.5V2Z" fill="black"/>
</svg>

<svg width="24" height="24" viewBox="0 0 24 24" fill="none" xmlns="http://www.w3.org/2000/svg"><path d="M5.619 22.75v.75a.75.75 0 0 0 .75-.75h-.75Zm-4.869 0H0c0 .414.336.75.75.75v-.75Zm0-13.99v-.75a.75.75 0 0 0-.75.75h.75Zm4.869 0h.75a.75.75 0 0 0-.75-.75v.75Zm7.964 13.99v.75a.75.75 0 0 0 .75-.75h-.75Zm-5.12 0h-.75c0 .414.337.75.75.75v-.75Zm0-13.99v-.75a.75.75 0 0 0-.75.75h.75Zm5.12 0h.75a.75.75 0 0 0-.75-.75v.75Zm0 1.597h-.75a.75.75 0 0 0 1.235.572l-.485-.572ZM17.87 8.75V8h-.01l.01.75Zm5.38 14v.75a.75.75 0 0 0 .75-.75h-.75Zm-5.38 0h-.75c0 .414.336.75.75.75v-.75Zm0-7.281-.75-.004v.004h.75Zm-2.143-2.16v.75-.75ZM5.619 22H.75v1.5h4.869V22Zm-4.119.75V8.76H0v13.99h1.5ZM.75 9.51h4.869v-1.5H.75v1.5Zm4.119-.75v13.99h1.5V8.76h-1.5Zm7.964 6.709v7.281h1.5v-7.281h-1.5Zm.75 6.531h-5.12v1.5h5.12V22Zm-4.37.75V8.76h-1.5v13.99h1.5Zm-.75-13.24h5.12v-1.5h-5.12v1.5Zm4.37-.75v1.597h1.5V8.76h-1.5Zm1.235 2.169a6.012 6.012 0 0 1 3.812-1.43L17.86 8a7.512 7.512 0 0 0-4.762 1.785l.97 1.144ZM17.87 9.5c1.388 0 2.511.508 3.302 1.467.805.976 1.328 2.497 1.328 4.622H24c0-2.354-.579-4.252-1.67-5.576C21.225 8.673 19.658 8 17.87 8v1.5Zm4.63 6.09v7.16H24v-7.16h-1.5Zm.75 6.41h-5.38v1.5h5.38V22Zm-4.63.75v-7.281h-1.5v7.281h1.5Zm-2.893-10.19c-1.591 0-2.894 1.347-2.894 2.909h1.5c0-.752.65-1.41 1.394-1.41v-1.5Zm2.893 2.912c.008-1.569-1.3-2.912-2.893-2.912v1.5c.75 0 1.397.657 1.393 1.405l1.5.007ZM4.75 3.625c0 .897-.728 1.625-1.625 1.625v1.5c1.726 0 3.125-1.4 3.125-3.125h-1.5ZM3.125 5.25A1.625 1.625 0 0 1 1.5 3.625H0C0 5.351 1.4 6.75 3.125 6.75v-1.5ZM1.5 3.625C1.5 2.728 2.228 2 3.125 2V.5A3.125 3.125 0 0 0 0 3.625h1.5ZM3.125 2c.897 0 1.625.728 1.625 1.625h1.5C6.25 1.899 4.85.5 3.125.5V2Z" fill="#000"/></svg>
